X:1
T:Best Shot -- Hornpipe
R:hornpipe
B:Cole's 1000 Fiddle Tunes
M:C|
L:1/8
K:G
(uDB,)|G,>DB,>G D>BG>d|B>gf>e ^d>ec>A|\
F>AD>F A>ce>d|c>AF>D ^C>D=C>A,|
G,>DB,>G D>BG>d|B>gf>e ^d>ec>A|\
F>AD>F A>ce>d|c>AE>F G2:|
|:(uFG)|B>A^G>A g>AG>A|B>A^G>A f>AG>A|\
B>A^G>A e>AG>A|(3gfe (3d^cB A>A^G>A|
B>A^G>A g>AG>A|B>A^G>A f>AG>A|\
B>A g>e ^c>AG>E|D>^CD>E (3DED (3=CB,A,:|
